X:0242
T:Joseph's Frolick.
M:6/8
L:1/8
Q:3/8=108
I: :: ::
Z:Jack Campin * www.campin.me.uk * 2009
K:D
 F/G/ |A3  Bdc|BAG FGA| Bcd      AGF    |GEE EFG|
       A3  Bdc|BAG FGA| Bcd      cBc    |dDD D2:|
(d/e/)|fef def|ede cde| dcB      AGF    |GEE E2
 f/g/ |agf bag|fed cBA|(B/c/)dB (c/d/)ec|dDD D2:|

